Adwaita++-Light/panel/24/org.sparkleshare.SparkleShare-syncing-error.svg

<svg height="24" width="24" xmlns="http://www.w3.org/2000/svg">
  <path d="m5.1425781 4s-1.1425781.04269-1.1425781 1.1855469v12.6718751s-.0002789 1.142578 1.1425781 1.142578h8.2812499a5 5 0 0 1 -.423828-2 5 5 0 0 1 .017578-.34375l-1.017578-.662109-1.892578 1.234375c-.7825321.512473-1.8157066-.188985-1.5390626-1.044922l.6699218-2.169922-1.8398437-1.304688c-.762136-.5395-.3672864-1.676829.5878906-1.693359l2.3066409-.04297.757812-2.3417966c.144719-.3909099.544846-.6476257.986328-.6328125.414219.014758.77635.2660006.91211.6328125l.757812 2.3417966 2.308594.04297c.669504.01278 1.050788.574638.962891 1.095703a5 5 0 0 1 1.021484-.111328 5 5 0 0 1 2 .419922v-5.248047c0-1.1428572-1.142578-1.1425781-1.142578-1.1425781h-5.714844l-2.285156-2.0292969zm6.8457029 4.9785156-.757812 2.3417964c-.142852.385434-.506995.644244-.917969.652344l-2.1679688.04102 1.671875 1.185547c.3562388.252723.5072788.707404.3730468 1.123047l-.6367186 2.068359c.0046-.0024.00141.0041.00781 0l1.8945336-1.234379c.331831-.216172.759966-.216172 1.091797 0l.660156.429688a5 5 0 0 1 .597657-1.298829c-.115009-.405949.03263-.842244.378906-1.08789l1.671875-1.185547-2.166016-.04102c-.411693-.0073-.77681-.266255-.919922-.652344l-.755859-2.3417924h-.002c.01242.03376.01358.020378-.0098.017578-.02307.00225-.02626.016432-.01367-.017578z" fill="#444"/>
  <path d="m18 13c-2.2091 0-4 1.7909-4 4s1.7909 4 4 4 4-1.7909 4-4-1.7909-4-4-4zm-1 1h2v3h-2zm1 4a1 1 0 0 1 1 1 1 1 0 0 1 -1 1 1 1 0 0 1 -1-1 1 1 0 0 1 1-1z" fill="#4285f4"/>
</svg>

<svg xmlns="http://www.w3.org/2000/svg" width="24" height="24" version="1.1">
 <defs>
  <style id="current-color-scheme" type="text/css">
   .ColorScheme-Text { color:#444444; } .ColorScheme-Highlight { color:#4285f4; }
  </style>
 </defs>
 <path style="fill:currentColor" class="ColorScheme-Text" d="M 5.1425781,4 C 5.1425781,4 4,4.04269 4,5.1855469 V 17.857422 C 4,17.857422 3.9997211,19 5.1425781,19 H 13.423828 A 5,5 0 0 1 13,17 5,5 0 0 1 13.017578,16.65625 L 12,15.994141 10.107422,17.228516 C 9.3248899,17.740989 8.2917154,17.039531 8.5683594,16.183594 L 9.2382812,14.013672 7.3984375,12.708984 c -0.762136,-0.5395 -0.3672864,-1.676829 0.5878906,-1.693359 l 2.3066409,-0.04297 0.757812,-2.3417966 c 0.144719,-0.3909099 0.544846,-0.6476257 0.986328,-0.6328125 0.414219,0.014758 0.77635,0.2660006 0.91211,0.6328125 l 0.757812,2.3417966 2.308594,0.04297 c 0.669504,0.01278 1.050788,0.574638 0.962891,1.095703 A 5,5 0 0 1 18,12 5,5 0 0 1 20,12.419922 V 7.171875 C 20,6.0290178 18.857422,6.0292969 18.857422,6.0292969 H 13.142578 L 10.857422,4 Z m 6.8457029,4.9785156 -0.757812,2.3417964 c -0.142852,0.385434 -0.506995,0.644244 -0.917969,0.652344 l -2.1679688,0.04102 1.671875,1.185547 c 0.3562388,0.252723 0.5072788,0.707404 0.3730468,1.123047 l -0.6367186,2.068359 c 0.0046,-0.0024 0.00141,0.0041 0.00781,0 L 11.455078,15.15625 c 0.331831,-0.216172 0.759966,-0.216172 1.091797,0 l 0.660156,0.429688 a 5,5 0 0 1 0.597657,-1.298829 c -0.115009,-0.405949 0.03263,-0.842244 0.378906,-1.08789 l 1.671875,-1.185547 -2.166016,-0.04102 c -0.411693,-0.0073 -0.77681,-0.266255 -0.919922,-0.652344 L 12.013672,8.9785156 h -0.002 c 0.01242,0.03376 0.01358,0.020378 -0.0098,0.017578 -0.02307,0.00225 -0.02626,0.016432 -0.01367,-0.017578 z"/>
 <path style="fill:currentColor" class="ColorScheme-Highlight" d="m 18,13 c -2.2091,0 -4,1.7909 -4,4 0,2.2091 1.7909,4 4,4 2.2091,0 4,-1.7909 4,-4 0,-2.2091 -1.7909,-4 -4,-4 z m -1,1 h 2 v 3 h -2 z m 1,4 a 1,1 0 0 1 1,1 1,1 0 0 1 -1,1 1,1 0 0 1 -1,-1 1,1 0 0 1 1,-1 z"/>
</svg>
